**kern	**kern
*staff2	*staff1
*clefF4	*clefG2
*M3/4	*M3/4
*k[b-]	*k[b-]
*F:	*F
=23||	=23||
4F	16ccLL
.	16a
.	16f
.	16aJJ
4FF	16ccLL
.	16a
.	16f
.	16aJJ
8r	16ccLL
.	16a
8F	16dd
.	16b-JJ
=24	=24
4F	16ccLL
.	16a
.	16f
.	16aJJ
4FF	16ccLL
.	16a
.	16b-
.	16gJJ
4r	16aLL
.	16f
.	16c
.	16fJJ
=25	=25
4F	16aLL
.	16f
.	16c
.	16fJJ
4FF	16aLL
.	16f
.	16c
.	16fJJ
8r	16aLL
.	16c
8F	16b-
.	16dJJ
=26	=26
4F	16aLL
.	16f
.	16c
.	16fJJ
4FF	16aLL
.	16c
.	16g
.	16B-JJ
4r	16fLL
.	16A
.	16f#
.	16AJJ
=27	=27
4C	16gLL
.	16e
.	16c
.	16eJJ
4CC	16gLL
.	16e
.	16c
.	16eJJ
8r	16gLL
.	16e
8C	16g#
.	16eJJ
=28	=28
4C	16aLL
.	16f
.	16c
.	16fJJ
4CC	16aLL
.	16f
.	16g#
.	16eJJ
4r	16aLL
.	16f
.	16g#
.	16eJJ
=29	=29
4C	16aLL
.	16f
.	16c
.	16fJJ
4CC	16aLL
.	16f
.	16c
.	16fJJ
8r	16aLL
.	16f
8C	16a
.	16f#JJ
=30	=30
4C	16b-LL
.	16g
.	16c
.	16gJJ
4CC	16b-LL
.	16g
.	16a
.	16f#JJ
4r	16b-LL
.	16g
.	16b-
.	16g#JJ
=31	=31
8FF 8F	16aLL
.	(16ccc
8r	16aa
.	16ffJJ)
8AA 8A	16ccLL
.	16ff
8r	16cc
.	16aJJ
8C 8c	16gLL
.	16cc
8r	16b-
.	16g#JJ
=32	=32
8FF 8F	16aLL
.	(16ccc
8r	16aa
.	16ffJJ)
8AA 8A	16ccLL
.	16ff
8r	16cc
.	16aJJ
8C 8c	16gLL
.	16cc
8r	16b-
.	16g#JJ
=33	=33
4FF 4F	16aLL
.	16ff
.	16cc
.	16aJJ
4BB- 4G	16gLL
.	16dd
.	16b-
.	16gJJ
4C 4B-	16eLL
.	16b-
.	16g
.	16eJJ
=34	=34
4F 4A	4f
[8FF	16r
.	(16fLL
*-	*-
